X:1
T:Ricercare a 3 voci
T:Musical Offering BWV1079
T:J. S. Bach
%%score { ( 1 3 ) | 2 }
L:1/8
Q:1/4=144
M:4/4
K:Eb
V:1 treble nm="Harp"
V:3 treble 
V:2 bass 
V:1
"^Vivace" c4 e4 | g4 a4 | =B4 z2 g2 | ^f4 =f4 | =e4 f/_e/f/e/ f/e/f/e/ | e2 d2 _d2 c2 | %6
 c/=B/c/B/ =AG c2 f2 | e4 d/c/d/e/ d/e/d/c/ | c2 c'2 ^f2 =a2 | B2 d'2 g2 b2 | e2 g2 c2 c'2- | %11
 c'2 b=a b=ag=f | =ed =e4 ^f2 | gdg=a gfed | d/c/d/c/- c3 dec | d2 c'2 c'/b/c'/b/ =a2 | %16
 d'2 g2- g2 g/^f/=e/f/ | g2 b2 =e2 g2 | c2 d=e g/f/g/f/- f2- | f2 a2 d2 f2 | B2 cd f/e/f/e/- e2- | %21
 e2 dc dc=B=A | G2 =A=B c=B c2- | c2 _B4 A2 | G4 z4 | z edc dfed | a/g/a/g/- g2- g_dcB | %27
 =AG=Ac g/f/g/f/- f2- | f2 =B2 z c2 =B | cBAG FAGF | E2 e2 d2 _d2 | c2 B4 =A2 | d2 _d2 c2 _c2 | %33
 B2 A4 G2 | c2 _c2 c/B/c/B/- B2 | =A2 _A2 A/G/A/G/- G2- | GFED CEDC | =B,2 z2 z4 | %38
 (3z Gc (3ece (3g_dc (3BAG | A2 z2 z4 | (3z FB (3_dB_d (3f_cB (3A_GF | _G e2 =d eB =c2- | %42
 c B2 =A BF =G2 | A f2 =e fc d2- | d c2 =B cG =A2 | (3BGB (3dBd g4- | (3g^f=e (3f=ad' c'4- | %47
 c'4- c'=a b2- | b=abg =a4- | ag_a^f g3 =f | =e4- ed_ec | d8- | d=e^fg fedc | BG=AB =AG^F=E | %54
 D2 z2 z4 | z def edcB | =A=Bcd G2 f2- | fdef =B2 b/a/b/a/- | afga gfed | cefg fedc | %60
 g2 G2 cd e2- | e2 =A2 =Bc d2- | d2 G2 =AB c2- | c=ABc B=AG^F | G8- | G2 c4 c/B/c/B/- | B2 AG A4- | %67
 A3 ^F G4- | G3 =E FABc | BAGF GBc_d | cBAG Acd=e | g/f/g/f/- f2 b/a/b/a/- a2 | %72
 c'4 e'/_d'/e'/d'/- d'2 | f/=e/f/e/- e2 z2 c'2 | c'/=b/c'/b/- b2 c'/_b/c'/b/- b2 | %75
 =a4 b/_a/b/a/- a2- | a2 g2 _g2 f2 | =e2 =dc f2 b2 | a4 g4 | ^f2 ed g2 c'2 | =b2 _b2 =a2 _a2 | %81
 a/g/a/g/- g2- gg=ab | =ag f2- ffg_a | gf e2- ecde | dc f2- fdef | ed g2- gefd | e2 z2 z4 | %87
 (3z cf (3afa (3c'_gf (3e_dc | _d2 z2 z4 | (3z Be (3_geg (3b_fe (3_d_cB | _c2 z2 z2 z A | %91
 G2 z2 z2 z _G | F2 z2 z2 z B | =A2 z2 z2 z _A | G/ z/ z z2 z gfe | d2 z2 f4- | f4- fd z g | %97
 =a=b c'2- c'=a=bd' | g4- g_g =g2- | gcf=e f4- | fdef edc=B | c=Bcd c_B=AG | B/=A/B/A/- A4 b2 | %103
 =a2 d4 c2- | c=ABG =EB=A_E | D2 d2 ^c2 =c2 | =B=A _B2- B=A e2- | ed g2 z2 =a=c | cB z2 z _dcB | %109
 z BAG z GF=E | =EF z =d z f z d | z c'ba z agf | fg z c d/c/=B f2- | f2 eA B/A/G _d2- | %114
 d2 ce =d_dc_c | _cB z2 z2 z e | ed z A =G_GF_F | _FE z E _F=F_G=G | AG_GF B4- | BGAF _G=GA=A | %120
 B=A_AG c4- | c=A B2 z4 | z2 G2 ^F2 =F2- | F2 ED (3EFG (3AGF | E2 c2 =B2 _B2 | %125
 =A2 B/_A/B/A/- A2 GF | =ED/C/ FB A2 G2 | (3FGA (3BAG (3ABc (3_dcB | c2 g/f/g/f/- f2 e2- | %129
 e_dcB A_cBA | B2 f/e/f/e/- e2 _d2- | dcBA _G__BA_G | A2 e/_d/e/d/- d2 c2- | c2 B4 AG | %134
 F4 z2 c/B/c/B/- | BAGF =E_dcB | AGFG A4- | AcBA Gfe_d | cBAB c4- | c2 =B2 z4 | %140
 d/c/d/c/- c2 f/e/f/e/- e2 | g4 b/a/b/a/- a2 | =B4 z2 g2 | ^f4 =f4 | =e4 _e4- | e2 d2 _d2 c2 | %146
 =B2 =AG c2 f2 | e4 d2 _d2 | cgab ag^fg | g/^f/g/f/- f2- ffg=a | g=fed ecde | d4- dcB=A | %152
 Bd g2 dg b2- | bg=ab- b=a/g/ ^f/g/=a | d2 d'2 g=a b2- | b2 =e2 ^fg b/=a/b/a/- | a2 d2 =ef g2- | %157
 g=efg f=ed^c | d8- | d2 =a/g/a/g/- g2 ^f2 | g2 d'2 g2 b2 | =efg=e c2 c'/b/c'/b/- | b2 ag agfe | %163
 defg ag a2- | a2 gf gfed | c2 de g/f/g/f/- f2- | f2 ed edc_B | =A2 _A2 G2 F2- | F4- F3 E | %169
 D2 A/G/A/G/- G2 ^F2 | Gdef edcB | =Acde dc=B=A | G=Bcd c_B=AG | ^F4 z2 e2 | =FDE=F EDC=B, | %175
 CFGA GFED | E4- EBAG | ^Fe d2- dag=f | =e_d' c'4 g/f/g/f/- | fdec =Aed_A | G^F G2 F2 =F2 | %181
 =ED F/_E/F/E/- ED A2- | AG c2 z2 d=F | FE z c z c z =B | c/=B/=A/B/ c2 z4 |] %185
V:2
 z8 | z8 | z8 | z8 | z8 | z8 | z8 | z8 | z8 | z8 | z8 | z8 | z8 | z8 | z8 | z8 | z8 | z8 | z8 | %19
 z8 | z8 | z8 | C,4 E,4 | G,4 A,4 | =B,,4 z2 G,2 | ^F,4 =F,4 | =E,4 _E,4- | E,2 D,2 _D,2 C,2 | %28
 =B,,2 =A,,G,, C,2 F,2 | E,4 D,4 | C,D,E,F, G,E,F,G, | A,2 B,2 CB, D/C/D/C/ | B,C,_D,E, F,=D,E,F, | %33
 G,2 A,2 B,A, C/B,/C/B,/ | A,B,,_C,_D, E,=C,=D,=E, | F,_E,_D,C, =B,,D,C,_B,, | =A,,4 _A,,4 | %37
 G,,4 =B,,4 | C,4 F,/=E,/F,/E,/- E,2 | F,,4 =A,,4 | B,,4 =D,4 | E,,2 F,,2 =G,,2 =A,,2 | %42
 B,,2 C,2 _D,2 =E,,2 | F,,2 G,,2 =A,,2 =B,,2 | C,2 D,2 _E,2 ^F,,2 | G,,4 B,,4 | D,4 E,4 | %47
 ^F,,4 z2 D,2 | ^C,4 =C,4 | =B,,4 _B,,4- | B,,2 =A,,2 _A,,2 G,,2 | %51
 ^F,,2 =E,,D,, G,,2 D,/C,/D,/C,/ | B,,4 =A,,4 | G,,2 =E,2 ^F,2 =A,,2 | B,,2 G,2 =A,2 C,2 | %55
 D,2 B,2 C2 E,2- | E,D,E,F, E,D,C,=B,, | C,F,G,A, G,F,E,D, | E,2 C,2 C2 G,2 | E2 C2 z2 F,2- | %60
 F,D,E,F, E,D,C,_B,, | =A,,C,D,E, D,C,=B,,=A,, | G,,=B,,C,D, C,_B,,=A,,G,, | ^F,,2 z2 z2 E,2 | %64
 =F,,D,E,F, E,D,C,=B,, | C,D,E,F, G,A,G,F, | =E,C,D,=E, F,2 F,,2 | B,,2 D,2 E,2 E,,2 | %68
 A,,2 C,2 _D,4- | D,2 =D,2 E,4- | E,2 =E,2 F,4- | F,2 z2 z _DCB, | A,4- A,A,G,F, | G,4- G,G,F,_E, | %74
 D,4 z =E,D,C, | F,4- F,F,G,A, | B,8- | B,G,A,B, A,G,F,=E, | F,=E,F,G, F,_E,D,C, | %79
 D,=A,B,C B,=A,G,^F, | G,=A,B,C DEDC | =B,G,=A,B, C2 C,2 | F,2 =A,2 B,2 B,,2 | E,2 G,2 A,4- | %84
 A,2 =A,2 B,4- | B,2 =B,2 C2 z2 | C,4 F,/=E,/F,/E,/- E,2 | F,4 B,/=A,/B,/A,/- A,2 | %88
 B,,4 E,/D,/E,/D,/- D,2 | E,4 A,/G,/A,/G,/- G,2 | A,,2 B,,2 =C,2 E,/D,/E,/D,/ | %91
 E,2 F,2 _G,2 B,,/=A,,/B,,/A,,/ | B,,2 C,2 =D,2 F,/=E,/F,/E,/ | F,2 G,2 A,2 C,/=B,,/C,/B,,/ | %94
 C,4 E,4 | G,4 A,4 | =B,,4 z2 G,2 | ^F,4 =F,4 | =E,4 E,/_D,/E,/D,/ _E,2- | E,2 D,2 _D,2 C,2 | %100
 =B,,2 =A,,G,, C,2 F,2 | F,/E,/F,/E,/ F,/E,/F,/E,/ E,/D,/E,/D,/ E,/D,/E,/D,/ | %102
 _D,2 =B,,=A,, =D,2 G,2 | ^F,2 =F,2 =E,2 _E,2 | D,8- | D,8- | D,2 D,2 ^C,2 =C,2 | %107
 =B,,=A,,_B,,G, =A,,G,D,^F, | G,,2 B,2 =E,2 G,2 | C,2 =D,=E, F,=E, F,2- | F,2 A,2 D,2 F,2 | %111
 B,,2 C,D, E,D, E,2- | E,D,E,F, E,D,C,=B,, | C,=B,,C,_D, C,B,,A,,G,, | A,,2 C,2 E,2 G,/F,/G,/F,/ | %115
 G,,2 B,,2 D,2 F,/E,/F,/E,/ | F,,2 A,,2 C,2 D,2 | E,,2 E,2 D,2 _D,2 | C,2 A,,2 G,,2 _G,,2 | %119
 F,,2 F,2 =E,2 _E,2 | D,2 B,,2 =A,,2 _A,,2 | G,,2 G,2 ^F,2 =F,2 | =E,2 _E,4 D,C, | %123
 =B,,=A,,/G,,/ C,F, E,2 D,2 | C,D,E,C, _D,=D,E,=E, | F,C,F,E, D,C,_D,B,, | %126
 _D,/C,/D,/C,/- C,2- (3C,B,,C, (3D,C,B,, | A,,2 C,2 F,,4- | F,,G,,A,,B,, C,A,,B,,C, | %129
 _D,2 E,2 F,E, G,/F,/G,/F,/ | E,F,,_G,,A,, B,,=G,,A,,B,, | C,2 _D,2 E,_D, F,/E,/F,/E,/ | %132
 _D,E,,_F,,_G,, A,,=F,,=G,,=A,, | B,,_A,,_G,,F,, =E,,=G,,F,,_E,, | _D,,2 F,,2 B,,2 _D,2 | %135
 G,,2 C,3 B,,A,,G,, | F,,2 A,,2 _D,2 G,/F,/G,/F,/ | B,,2 E,3 _D,C,B,, | A,,2 C,2 F,2 B,/A,/B,/A,/ | %139
 D,2 G,3 F,E,D, | E,C,B,,A,, G,,F,,E,,D,, | C,,C,D,E, F,G,A,F, | G,2 G,,2 C,D, E,2- | %143
 E,2 =A,,2 =B,,C, D,2- | D,2 G,,2 =A,,B,, C,2- | C,=A,,B,,C, B,,_A,,G,,^F,, | G,,2 z2 z2 G,2 | %147
 A,2 F,2 B,4- | B,2 G,2 C4- | C2 =A,2 D4- | D4 C4- | C=A,B,C B,=A,G,^F, | G,^F,G,=A, G,=F,E,D, | %153
 E,2 C,2[K:treble] c4- | c=ABc B=AGF | =EG=AB =AG^F=E | D^FG=A G=F=ED |[K:bass] _D2 z2 z2 B2 | %158
 =C=A,B,=C B,=A,G,^F, | G,=F,E,D, C,B,,C,D, | G,,G,^F,G, B,DG,B, | C4 z2 C2 | A,2 C2 F,2 G,A, | %163
 B,4 z2 B,2 | G,2 B,2 E,2 F,G, | A,4 z2 D,2 | E,2 G,2 C,2 D,=E, | F,_E,D,F, E,D,C,=B,, | C,4 E,4 | %169
 G,4 _A,4 | =B,,4 z2 G,2 | ^F,4 =F,4 | =E,4 _E,4- | E,2 D,2 _D,2 C,2 | =B,,2 =A,,G,, C,2 F,2 | %175
 E,4 D,4 | C,8- | C,4 B,,4- | B,,4 A,,4 | G,,8- | G,,8- | G,,2 G,,2 ^F,,2 =F,,2 | %182
 =E,,D,,_E,,C, D,,C,G,,=B,, | C,2 A,,2 F,,2 G,,2 | C,,4 z4 |] %185
V:3
 x8 | x8 | x8 | x8 | x8 | x8 | x8 | x8 | x8 | G4 B4 | c4 e4 | ^F4 z2 d2 | ^c4 =c4 | %13
 =B4 c/_B/c/B/- B2- | B2 =A2 _A2 G2 | ^F2 =ED G2 c2 | B4 B/=A/B/A/- A2 | G4 z2 B2- | B2 AG AGFE | %19
 DEFG AG A2- | A2 GF GFED | C2 DE FE F2- | F4- F3 E | D2 G2 C2 F2 | F2 ED ED[I:staff +1]CB, | %25
 =A,G, A,4 =B,2 | CG,CD CB,A,G, | F,4- F,G,A,F, | G,2[I:staff -1] F2 E2 D2 | %29
 G2[I:staff +1] D/C/D/C/- C2 C/=B,/C/B,/ |[I:staff -1] C2 c4 B2- | BAGF E_GFE | F2 B4 A2- | %33
 AGFE _DFED | E2 A4 G2- | G2 F4 ED | C2[I:staff +1] C,2 F,2 ^F,2 | %37
 (3G,D,G, (3=B,G,B, (3D_A,G, (3F,E,D, | E,2[I:staff -1] z2 z4 | %39
 (3z[I:staff +1] C,F, (3A,F,A, (3C_G,F, (3E,_D,C, | _D,2[I:staff -1] z2 z4 | z4 z2 z E | %42
 D z z2 z2 z _D | C z z2 z2 z F | =E z z2 z2 z _E | D z z2 z dcB | =A z z2 z b=ag | %47
 =adec d2 z/ a/g/f/ | g4 g=e^f=a | d4- d^c d2 | z Gc=B c4- | c=A_Bc BAG^F | %52
 G2[I:staff +1] D,2[I:staff -1] z2[I:staff +1] ^F,2 | G,2[I:staff -1] z2 z4 | %54
 z[I:staff +1] B,CD CB,=A,G, | F,2[I:staff -1] z2 z2[I:staff +1] G,2 | F,2[I:staff -1] z2 z2 d2 | %57
 G2 z2 z4 | C4 E4 | G4 A4 | =B,4 z2 G2 | ^F4 =F4 | =E4 _E4- | E2 D2 _D2 C2 | %64
[I:staff +1] =B,2 =A,G, C2[I:staff -1] F2 | E4 D4 | C4- CCD_E | DC B,2- B,B,C_D | %68
 CB,[I:staff +1] A,2- A,F,G,A, | G,F, B,2- B,G,A,B, | A,G, C2- CA,B,G, | A,[I:staff -1]CD=E F4- | %72
 FE_DC[I:staff +1] B,4- | B,_DCB, A,4- | A,A,G,F, G,4 | F,[I:staff -1]CD=E F4- | F-FGA Bc_dB | %77
 c8- | c2 =B2 cd e2- | ec ^F2 z2 e2 | d2 g4 f2- | f2 ed e4- | e3 _d =d4- | %83
 d3[I:staff +1] =B, C[I:staff -1]EFG | FEDC DFGA | GFED EG=A=B | (3cGc (3ece (3g_dc (3BAG | %87
 A2 z2 z4 | (3z FB (3_dBd (3f_cB (3A_GF | _G2 z2 z4 | z A2 G AE F2- | F E2 D EB, C2 | %92
 _D B2 =A BF G2- | G F2 =E FC D2 | (3ECE (3GEG c4- | (3c=B=A (3Bdg z edc | dGAF G2 e2- | edec d4- | %98
 dc_d=B c3 _B | =A4- AG_AF | A/G/A/G/- G6- | G2 ^f4 g2- | g=efg fed^c | dcB=A GB_AG | %104
 ^F2 D2 _D2 C2 |[I:staff +1] =B,=A,_B,[I:staff -1]G[I:staff +1] A,[I:staff -1]G^F[I:staff +1]A, | %106
 G,3 ^F, G,3[I:staff -1] ^F | G3 e d^c z =A | =AG z2 z B_AG | z _DCB, z B,A,G, | %110
[I:staff +1] G,A,[I:staff -1] z _c z c z c | z agf z fed | de z2 z2 z A | AG z2 z2 z B | %114
 BE A2 z2 z D | DE z B =A_AG_G | _GF z[I:staff +1] C =B,_B,=A,_A, | A,G, G,2 A,2 B,2 | %118
 E,2[I:staff -1] z C _D=DE=E | F=EF[I:staff +1]A, B,2 C2 | F,2[I:staff -1] z D E=EF^F | %121
 G^F G2 z2 z D | ^C=C=B,_B,[I:staff +1] =A,B,=B,C | D2 C4 =B,2 | A,2[I:staff -1] z A- AG/F/ G2- | %125
 GF/E/ DC[I:staff +1] =B,2 _B,2- | B,2 A,G, F,2 =E,2 | F,2[I:staff -1] z =E F2 z G | %128
 A2 z A G2 _G2 | F2 E4 D2 | G2 z _G F2 =E2 | E2 _D4 C2 | F2 z _F E4 | D2 _D2 C4- | %134
 C[I:staff +1]CB,A, _G,F,=E,F, | =E,4[I:staff -1] z4 | z2 F2 F=E_ED | _D2 G,2 B,2 z2 | %138
 z2 z B- BAG_G | FAGF EDC=B, | C z z2 z =Bcd | e2 c4 f2- | fdef edc_B | =Acde dc=BA | %144
 G=Bcd c_B=AG | _G2 =G4 A2- | ADEF EDC=B, |[I:staff +1] C[I:staff -1]FGA- AAGF | =E4 _E4 | %149
 Dcde dcB=A | BG=AB _AG^FG | ^F2 G=A D2 z2 | G4 B4 | c4 e4 | ^F4 z2 d2 | ^c4 =c4 | =B4 _B4- | %157
 B2 =A2 _A2 G2 | _G2 =ED =G2 c2 | B4 B/=A/B/A/- A2 | G2 z2 z2 _d2 | G2 B2 =EFGE | C2 D=E F4- | %163
 F2 A2 DEFD | B,2 CD E4- | E2 DC DC[I:staff +1]=B,=A, | G,2 =A,B, C4- | C2 =B,2 C2 D2 | %168
 G,2 =A,=B, CB, C2- | C=A,G,A,[I:staff -1] CEDC | D2[I:staff +1] G,2 CD[I:staff -1] E2- | %171
 E2[I:staff +1] =A,2 =B,C D2- | D2 G,2 =A,B, C2- | C=A,B,C B,A,G,^F, | G,8- | %175
 G,2 D/C/D/C/- C2 =B,2 | CG,A,B, A,G,F,E, | D,^F,G,=A, G,=F,=E,D, | C,=E,F,G, F,_E,D,C, | %179
 =B,,2 G,2 ^F,2 =F,2 | =E,D,_E,C D,C=B,D, | C,3 =B,, C,3 =B, |[I:staff -1] C3 A G^F z D | %183
 DC z E z D z F | F2 =E2 z4 |] %185

